X: 4064
M: C
L: 1/8
K: D
|:\
vA>vBuA>uF (A<d)d2 | (B<d)d2 (A<d)d2 |\
(f<a)a2 (f<a)a2 |
a>ba>g f>ef>d |\
[1 (g<b)b2 g<bb2 | g>ag>f e>dc>A :|\
[2 b>ga>f g>ef>d | e>c (3(ABc) d2d2 |]


